X: 24
T: Judy's Reel
T: The Maid Behind the Bar
O: Ryan 1883
%: Kiss the Maid Behind the Barrel
%: Indy's Favorite
%: the Green Mountain
Z: 1997 by John Chambers <jc:trillian.mit.edu>
M: C|
L: 1/8
K: D
DE \
|: "D"FAAB AFED | FAA[BG] ABde | "Bm"fBBA Bcde | f2ef "A7"edBA | "D"FAAB AFED |
| FAA[BG] ABde | "Bm"fBBA "G"BcdB | "A7"AFEF "D"D4 :: "D"fgab afde | fdad bdfd | "Em"efga bgef |
| gebe "A7"gfeg | "D"fgaf bfaf | defd efde | "Bm"fBBA "G"BcdB | "A7"AFEF "D"D4 :|

%%sep 2 1 500

